X: 7323
T:Kilcrevie
R:Jig
O:Scotland
O:Ireland
M:6/8
K:A
E|\
E>Ac e2f | ecA agf | ecA EAc \
|1 dcd B2E :|2 BAG A2e:|
|:\
ece a2g | bag fga | ecA EAc \
|1 dcd B2e :|2 BAG A2 :|
